X:1
T:The Greenland Fishery
B:Baring-Gould, 1895, A Garland of Country Song, London
Z:S Baring-Gould
F:http://www.folkinfo.org/songs
L:1/8     %
K:G
C2 |G2 G2 A2 GG |F2 E2 D2 GA |B2 d2 cB AG | F6
w:In seven-teen hun-dred and nine-ty four, On_ March the twen_ tieth_ day;
 Bc |d2 d2 c2 AB |cB AG F2 G3/2A/ |B2 d2 cB AG | A2
w:We_ hoist our co-lours_ to_ the_ mast And for Green-land bore_ a-*way, 
D2 D2 G3/2A/ |B2 d2 cB A2 |G6 z2 |]
w: brave boys! And for Green-land bore_ a-way 